X: 40375
T: Tom Ginley's Fancy
R: jig
M: 6/8
K: Amixolydian
|:EAA cAA|BEF G2A|EAA A2B|cde dBG|
EAA cAA|BEF G2A|GED ~G3|B2e dBG:|
|:EAA A2B|EGG G2A|EAA A2B|cde dBG|
EAA cAA|BEF G2A|GED ~G3|B2e dBG:|

